public/assets/img/logo_.svg

<?xml version="1.0" encoding="UTF-8"?>
<svg id="Layer_1" xmlns="http://www.w3.org/2000/svg" version="1.1" viewBox="0 0 800 800">
  <!-- Generator: Adobe Illustrator 30.2.1, SVG Export Plug-In . SVG Version: 2.1.1 Build 1)  -->
  <defs>
    <style>
      .st0 {
        fill: none;
      }

      .st1 {
        fill: #343a40;
      }

      .st2 {
        fill: #565656;
      }

      .st3 {
        fill: #fff;
        stroke: #fff;
        stroke-miterlimit: 10;
      }
    </style>
  </defs>
  <path class="st2" d="M529.7,531.2l-86.5,86.5v89.3l304.3-307L443.2,93v92.1l86.5,86.5v259.6h0ZM593.9,337.2l65.5,64.2-65.5,62.8v-127h0ZM356.8,707v-89.3l-86.5-86.5v-259.6l86.5-86.5v-92.1L52.5,400l304.3,307ZM206.1,464.2l-65.5-62.8,65.5-64.2v127ZM367.9,268.8h65.5v263.7h-65.5v-263.7Z"/>
  <path class="st3" d="M1329.6-245.5l-8.6,8.6v8.8l30.1-30.4-30-30.4v9.1l8.6,8.6-.1,25.7h0ZM1336-264.7l6.5,6.3-6.5,6.2v-12.5h0ZM1312.5-228.1v-8.8l-8.6-8.6v-25.7l8.6-8.6v-9.1l-30.1,30.4,30.1,30.4ZM1297.6-252.1l-6.5-6.2,6.5-6.3v12.5ZM1313.6-271.5h6.5v26.1h-6.5v-26.1Z"/>
  <path class="st1" d="M1329.6-245.5l-8.6,8.6v8.8l30.1-30.4-30-30.4v9.1l8.6,8.6-.1,25.7h0ZM1336-264.7l6.5,6.3-6.5,6.2v-12.5h0ZM1312.5-228.1v-8.8l-8.6-8.6v-25.7l8.6-8.6v-9.1l-30.1,30.4,30.1,30.4ZM1297.6-252.1l-6.5-6.2,6.5-6.3v12.5ZM1313.6-271.5h6.5v26.1h-6.5v-26.1Z"/>
  <rect class="st0" x="1281.2" y="-290" width="71.2" height="63"/>
</svg>

<?xml version="1.0" encoding="utf-8"?>
<!-- Generator: Adobe Illustrator 26.4.1, SVG Export Plug-In . SVG Version: 6.00 Build 0)  -->
<svg version="1.1" id="Layer_1" xmlns="http://www.w3.org/2000/svg" xmlns:xlink="http://www.w3.org/1999/xlink" x="0px" y="0px"
	 viewBox="0 0 800 800" style="enable-background:new 0 0 800 800;" xml:space="preserve">
<style type="text/css">
	.st0{fill:#00ADB5;}
	.st1{fill:#FFFFFF;stroke:#FFFFFF;stroke-miterlimit:10;}
	.st2{fill:#343A40;}
	.st3{fill:none;}
</style>
<path class="st0" d="M529.7,531.2l-86.5,86.5V707l304.3-307L443.2,93v92.1l86.5,86.5V531.2L529.7,531.2z M593.9,337.2l65.5,64.2
	l-65.5,62.8V337.2L593.9,337.2z M356.8,707v-89.3l-86.5-86.5V271.6l86.5-86.5V93L52.5,400L356.8,707z M206.1,464.2l-65.5-62.8
	l65.5-64.2V464.2z M367.9,268.8h65.5v263.7h-65.5V268.8z"/>
<path class="st1" d="M1329.6-245.5l-8.6,8.6v8.8l30.1-30.4l-30-30.4v9.1l8.6,8.6L1329.6-245.5L1329.6-245.5z M1336-264.7l6.5,6.3
	l-6.5,6.2V-264.7L1336-264.7z M1312.5-228.1v-8.8l-8.6-8.6v-25.7l8.6-8.6v-9.1l-30.1,30.4L1312.5-228.1z M1297.6-252.1l-6.5-6.2
	l6.5-6.3V-252.1z M1313.6-271.5h6.5v26.1h-6.5V-271.5z"/>
<path class="st2" d="M1329.6-245.5l-8.6,8.6v8.8l30.1-30.4l-30-30.4v9.1l8.6,8.6L1329.6-245.5L1329.6-245.5z M1336-264.7l6.5,6.3
	l-6.5,6.2V-264.7L1336-264.7z M1312.5-228.1v-8.8l-8.6-8.6v-25.7l8.6-8.6v-9.1l-30.1,30.4L1312.5-228.1z M1297.6-252.1l-6.5-6.2
	l6.5-6.3V-252.1z M1313.6-271.5h6.5v26.1h-6.5V-271.5z"/>
<rect x="1281.2" y="-290" class="st3" width="71.2" height="63"/>
</svg>
